X:1
T:Davos, 75.75 D
T:Davos, 75.75 D
T:Peter Philip Bilhorn, 1898
T:Public Domain Courtesy of the Cyber Hymnal™
C:Peter Philip Bilhorn, 1898
Z:Public Domain
Z:Courtesy of the Cyber Hymnal™
%%score ( 1 2 ) ( 3 4 )
L:1/8
Q:1/4=108
M:4/4
K:C
V:1 treble 
V:2 treble 
V:3 bass 
V:4 bass 
V:1
 [Ec]2 [Ec]2 (cG) ([CE][EG]) | [Ec]2 [Fc]2 [Ec]4 | [Ge]3 [Ge] [^Fd]2 [FA]2 | [Fd]6 z2 | %4
 [Ec]2 [Ec]2 (cG) ([CE][EG]) | [Ec]2 [Fc]2 [Ec]4 | [Ge]3 [Ec] [Fd]2 [Fd]2 | [Ec]6 z2 | %8
 [Ec]3 [EG] [EG]2 [Gc]2 | [Ac]3 [FA] [FA]4 | [^Fd]3 [Fc] [FB]2 [FA]2 | G6 F2 | %12
 [Ec]3 [Gc] [Gd]2 [Gd]2 | [Ge]2 [Gc]2 [FA]4 | [EG]2 [Gc]2 [GB]2 [Fd]2 | [Ec]6 z2 |] %16
V:2
 x4 E2 x2 | x8 | x8 | x8 | x4 E2 x2 | x8 | x8 | x8 | x8 | x8 | x8 | G2 A2 G2 x2 | x8 | x8 | x8 | %15
 x8 |] %16
V:3
 [C,G,]2 [C,G,]2 [C,G,]2 [C,C]2 | [C,G,]2 [C,A,]2 [C,G,]4 | [C,C]3 [C,C] [D,A,]2 [D,D]2 | B,6 D,2 | %4
 [C,G,]2 [C,G,]2 [C,G,]2 [C,C]2 | [C,G,]2 [C,A,]2 [C,G,]4 | [C,C]3 [C,G,] [G,B,]2 [G,B,]2 | %7
 [C,C]6 z2 | [C,G,]3 [C,C] [C,C]2 [E,C]2 | [F,C]3 [F,C] [F,C]4 | [D,D]3 [D,D] [D,D]2 [D,C]2 | %11
 B,6 D,2 | [C,C]3 [E,C] [G,B,]2 [G,B,]2 | C2 [E,C]2 [F,C]4 | [G,C]2 [G,E]2 [G,D]2 [G,B,]2 | %15
 [C,C]6 z2 |] %16
V:4
 x8 | x8 | x8 | G,2 F,2 E,2 x2 | x8 | x8 | x8 | x8 | x8 | x8 | x8 | G,2 F,2 E,2 x2 | x8 | C2 x6 | %14
 x8 | x8 |] %16

